X: 23
T: Scottie come over the Border
R: jig
M: 6/8
L: 1/8
N: In bars 9, 11 and 15, notes pencilled in above the staff were used.
Z: 2010 John Chambers <jc:trillian.mit.edu>
B: 19th century tune book collected by W.A. Cocks.
F: http://www.asaplive.com/archive/browse_by_collection.asp
N: The asaplive.com web site is complex, and links to its files don't usually work.
K: Bb
B,3 D2F | Bdc B2F | G>AG G2g | fed c2B | B,3 D2F | Bdc B2F | G>AG FEF | GBD C2B, :|
|: def fdf | geg fdB | def gab | def c2d | def fdB | gec cde | dbg fdf Bcd c2B :|


%%sep 5 1 500

